svg/Pictogram/pictograms-nps-first_aid.svg

<?xml version="1.0" encoding="UTF-8" standalone="no"?>
<!-- Generator: Adobe Illustrator 13.0.2, SVG Export Plug-In . SVG Version: 6.00 Build 14948)  -->
<svg
   xmlns:dc="http://purl.org/dc/elements/1.1/"
   xmlns:cc="http://creativecommons.org/ns#"
   xmlns:rdf="http://www.w3.org/1999/02/22-rdf-syntax-ns#"
   xmlns:svg="http://www.w3.org/2000/svg"
   xmlns="http://www.w3.org/2000/svg"
   xmlns:sodipodi="http://sodipodi.sourceforge.net/DTD/sodipodi-0.dtd"
   xmlns:inkscape="http://www.inkscape.org/namespaces/inkscape"
   version="1.1"
   id="Layer_1"
   x="0px"
   y="0px"
   width="123.547px"
   height="123.539px"
   viewBox="-0.258 -0.548 123.547 123.539"
   style="enable-background:new -0.258 -0.548 123.547 123.539;"
   xml:space="preserve"
   sodipodi:version="0.32"
   inkscape:version="0.46"
   sodipodi:docname="pictograms-nps-first_aid-2.svg"
   inkscape:output_extension="org.inkscape.output.svg.inkscape"><metadata
   id="metadata17898"><rdf:RDF><cc:Work
       rdf:about=""><dc:format>image/svg+xml</dc:format><dc:type
         rdf:resource="http://purl.org/dc/dcmitype/StillImage" /></cc:Work></rdf:RDF></metadata><defs
   id="defs17896"><inkscape:perspective
     sodipodi:type="inkscape:persp3d"
     inkscape:vp_x="0 : 61.769501 : 1"
     inkscape:vp_y="0 : 1000 : 0"
     inkscape:vp_z="123.547 : 61.769501 : 1"
     inkscape:persp3d-origin="61.773499 : 41.179667 : 1"
     id="perspective17900" /></defs><sodipodi:namedview
   inkscape:window-height="700"
   inkscape:window-width="727"
   inkscape:pageshadow="2"
   inkscape:pageopacity="0.0"
   guidetolerance="10.0"
   gridtolerance="10.0"
   objecttolerance="10.0"
   borderopacity="1.0"
   bordercolor="#666666"
   pagecolor="#ffffff"
   id="base"
   showgrid="false"
   inkscape:zoom="0.93897473"
   inkscape:cx="168.61768"
   inkscape:cy="47.747459"
   inkscape:window-x="0"
   inkscape:window-y="37"
   inkscape:current-layer="Layer_1" />

<path
   d="M 14.561268,1.4629664 C 7.7727632,1.4629664 2.2516135,6.9966641 2.2516135,13.785169 L 2.2516135,108.15918 C 2.2516135,114.94769 7.7727632,120.48139 14.561268,120.48139 L 108.94783,120.48139 C 115.72379,120.48139 121.23239,114.94769 121.23239,108.15918 L 121.23239,13.785169 C 121.23239,6.9966641 115.72379,1.4629664 108.94783,1.4629664 L 14.561268,1.4629664 z"
   style="fill:#ffffff;fill-opacity:1;fill-rule:nonzero;stroke:none"
   id="path10103" /><path
   d="M 108.94783,122.991 C 117.12917,122.991 123.742,116.35307 123.742,108.15918 L 123.742,13.785169 C 123.742,5.5912806 117.12917,-1.0466471 108.94783,-1.0466471 L 14.561268,-1.0466471 C 6.3799277,-1.0466471 -0.258,5.5912806 -0.258,13.785169 L -0.258,108.15918 C -0.258,116.35307 6.3799277,122.991 14.561268,122.991 L 108.94783,122.991 z"
   style="fill:#000000;fill-opacity:1;fill-rule:nonzero;stroke:none"
   id="path10105" /><path
   d="M 48.190089,98.999095 L 73.599925,98.999095 L 73.574829,73.601806 L 99.02231,73.601806 L 99.02231,48.166874 L 73.574829,48.166874 L 73.599925,22.782133 L 48.190089,22.782133 L 48.215185,48.166874 L 22.767704,48.166874 L 22.767704,73.601806 L 48.215185,73.601806 L 48.190089,98.999095 z"
   style="fill:#ffffff;fill-opacity:1;fill-rule:nonzero;stroke:none"
   id="path10107" /></svg>

<svg xmlns="http://www.w3.org/2000/svg" width="123.55" height="123.54" viewBox="-0.258 -0.548 123.547 123.539" enable-background="new -0.258 -0.548 123.547 123.539"><path d="m14.561 1.463c-6.789 0-12.31 5.534-12.31 12.322v94.37c0 6.789 5.521 12.322 12.31 12.322h94.39c6.776 0 12.285-5.534 12.285-12.322v-94.37c0-6.789-5.509-12.322-12.285-12.322h-94.39" fill="#fff"/><path d="m108.95 122.99c8.181 0 14.794-6.638 14.794-14.832v-94.37c0-8.194-6.613-14.832-14.794-14.832h-94.39c-8.181 0-14.819 6.638-14.819 14.832v94.37c0 8.194 6.638 14.832 14.819 14.832h94.39"/><path d="m48.19 99h25.41l-.025-25.397h25.447v-25.435h-25.447l.025-25.385h-25.41l.025 25.385h-25.447v25.435h25.447l-.025 25.397" fill="#fff"/></svg>
